X: 1
T: The Three Camps
P: piffero primo a0461
O: strube
%R: march
F: http://ancients.sudburymuster.org/mus/ssp/pdf/struberevF.pdf
Z: 2019 John Chambers <jc:trillian.mit.edu>
M: 4/4
L: 1/8
K: G
zc |\
B2 A2 G2 g2 | f2 e2 d3 c | B2 A2 G2 g2 | f2 e2 d3 c |\
B2 A2 G2 g2 | f2 e2 d3 c | B2 A2 G2 g2 |
f2 e2 d2 |: zd |\
g>d (3(BAG) e3 e | (3(def) (3(gdB) A3 c | B2 A2 G2 g2 | B2 A2 G2 :|\
zc | B3 A G3 g | f2 e2 d3 c |
B3 A G3 g | f2 e2 d2 |: zd |\
g>d (3(BAG) e3 e | (3(def) (3(gdB) A3 c | B2 A2 G2 g2 |[1 B2 A2 G2 :|\
[2 (3(faf) (3(def) g2 |]

%%slurgraces 1
%%graceslurs 1
%%center (7-beat roll)


